X:1
T:Title
%%score [ 1 2 3 4 ]
L:1/8
Q:1/4=130
M:4/4
K:F
V:1 treble nm="MusicXML Part"
V:2 treble nm="MusicXML Part"
V:3 treble-8 nm="MusicXML Part"
V:4 bass nm="MusicXML Part"
V:1
 D4 D4 | E4 E4 | F4 G4- | G2 ^FE F4 | G8 | G8 | A4 A4 | B4 B4 | A4 B4 | G8 | ^F8 | ^F4 F4 | G8 | %13
w: Tri- st´E-|spa- ña|sin *|* * * ven-|tu-|ra,|to- dos|te de-|ven *|llo-|rar.|Des- po-|bla-|
w: Pues que|tal pér-|di- *|* * * da|pier-|des,|di- me|en qué|po- dràs|ga-|nar;|pier- des|la|
w: Pier- des|to- da|tu e-|* * * spe-|ran-|ça,|no te|que- da|que e-|spe-|rar,|pier- des|Prì|
w: Tor- men-|tas, pe-|nas, *|* * * do-|lo-|res,|te vi-|ni- e-|ron a|po-|blar.|Sem- bro-|te|
w: Hi- zo-|te de|mas *|* * * di-|cho-|sa|pa- ra|mas te|la *|sti-|mar.|Tus vic-|to-|
 G4 A4- | A2 G2 F2 _E2 | D8 | _E8 | D8 | D4 D4 | G4 G4 | ^F8 | G4 A4- | A2 G2 G4- | G4 ^F4 | G8 |] %25
w: da d´a-||le-|gri-|a,|pa- ra|nun- ca|en|ti tor-|||nar.|
w: luz de||tu|glo-|ria|y el|go- zo|te|go- *|||zar.|
w: tan al-||to|hi-|jo|de Rey-|es sin||* par.||||
w: Dios de|||pla-|çer|por- que|na- ci-|es-|se pe-|||sar.|
w: rias y||tri-|un-|fos|ha se|ho- vi-|e-|ron de||* pa-|gar.|
V:2
 D4 D4 | ^C4 C4 | D4 E4 | D8- | D8 | E8 | F4 F4 | F4 F4 | F4 D4- | D2 CB, C4 | D8 | D4 D4 | E8 | %13
w: Hi- zo-|te de|mas di-|cho-||sa|pa- ra|mas te|la sti-||mar.|Tus vic-|to-|
w: Pues que|tal pér-|di- da|pier-||des,|di- me|en qué|po- dràs|* * * ga-|nar;|pier- des|la|
w: Pier- des|to- da|tu e-|spe-|ran-|ça,|no te|que- da|que e-|* * * spe-|rar,|pier- des|Prì|
w: Tri- st´E-|spa- ña|sin ven-|tu-||ra,|to- dos|te de-|ven llo-||rar.|Des- po-|bla-|
w: |||||||||||||
w: Tor- men-|tas, pe-|nas, do-|lo-||res,|te vi-|ni- e-|ron a|* * * po-|blar.|Sem- bro-|te|
 E4 F3 E | C8 | D4 B,4- | B,2 A,G, A,4 | B,8 | B,4 B,4 | B,4 C4 | D8 | D4 F4- | F2 _E2 D2 C2 | D8 | %24
w: rias y *|tri-|un- *||fos|ha se|ho- vi-|e-|ron de||pa-|
w: luz de *|tu|glo- *||ria|y el|go- zo|te|go- *|||
w: tan al- *||to hi-||jo|de Rey-|es sin||* par.|||
w: da d´a- *|le-|gri- *||a,|pa- ra|nun- ca|en|ti tor-|||
w: |||||por- que|na- ci-|es-|se pe-|||
w: Dios de *||* pla-||çer|||||||
 D8 |] %25
w: gar.|
w: zar.|
w: |
w: nar.|
w: sar.|
w: |
V:3
 A4 A4 | A4 A4 | A4 c4 | A8 | B8 | c8 | c4 c4 | d4 d4 | c4 B4- | B2 A2 G4 | A8 | A4 A4 | c8 | c8 | %14
w: Hi- zo-|te de|mas di-|cho-||sa|pa- ra|mas te|la sti-||mar.|Tus vic-|to-|rias|
w: Pues que|tal pér-|di- da|pier-||des,|di- me|en qué|po- dràs|* * ga-|nar;|pier- des|la|luz|
w: Pier- des|to- da|tu e-|spe-|ran-|ça,|no te|que- da|que e-|* * spe-|rar,|pier- des|Prì|tan|
w: Tri- st´E-|spa- ña|sin ven-|tu-||ra,|to- dos|te de-|ven llo-||rar.|Des- po-|bla-|da|
w: Tor- men-|tas, pe-|nas, do-|lo-||res,|te vi-|ni- e-|ron a|* * po-|blar.|Sem- bro-|te|Dios|
 A4 A4 | B4 d4 | c8 | F8 | F4 F4 | G4 G4 | A8 | B4 c4- | c4 B4 | A8 | G8 |] %25
w: y tri-|un- *||fos|ha se|ho- vi-|e-|ron de||pa-|gar.|
w: de tu|glo- *||ria|y el|go- zo|te|go- *|||zar.|
w: al- to|hi- *||jo|de Rey-|es sin||* par.||||
w: d´a- le-|gri- *||a,|pa- ra|nun- ca|en|ti tor-|||nar.|
w: de pla-|çer, pla-|cer||por- que|na- ci-|es-|se pe-|||sar.|
V:4
 D,4 D,4 | A,,4 A,,4 | D,4 C,4 | D,8 | G,8 | C,8 | F,4 F,4 | B,,4 B,,4 | F,4 G,4 | _E,8 | D,8 | %11
w: Hi- zo-|te de|mas di-|cho-||sa|pa- ra|mas te|la *|sti-|mar.|
w: Pues que|tal pér-|di- da|pier-||des,|di- me|en qué|po- dràs|ga-|nar;|
w: Pier- des|to- da|tu e-|spe-|ran-|ça,|no te|que- da|que e-|spe-|rar,|
w: Tri- st´E-|spa- ña|sin ven-|tu-||ra,|to- dos|te de-|ven *|llo-|rar.|
w: Tor- men-|tas, pe-|nas, do-|lo-||res,|te vi-|ni- e-|ron a|po-|blar.|
 D,4 D,4 | C,8 | C,4 F,4- | F,2 _E,2 D,2 C,2 | B,,8 | C,8 | B,,8 | B,,4 B,,4 | _E,4 E,4 | D,8 | %21
w: Tus vic-|to-|rias y||tri-|un-|fos|ha se|ho- vi-|e-|
w: pier- des|la|luz de||tu|glo-|ria|y el|go- zo|te|
w: pier- des|Prì|tan al-||to|hi-|jo|de Rey-|es sin||
w: Des- po-|bla-|da d´a-||le-|gri-|a,|pa- ra|nun- ca|en|
w: Sem- bro-|te|Dios de|||pla-|çer|por- que|na- ci-|es-|
 G,4 F,4- | F,4 G,4 | D,8 | G,8 |] %25
w: ron de||pa-|gar.|
w: go- *|||zar.|
w: * par.||||
w: ti tor-|||nar.|
w: se pe-|||sar.|

